X:41
T:Pastourelle de Thibaut de Champagne
R:Chanson
O:France
B:Le livre des Chansons (Henri Davenson) n°41
Z:<anamnese@caramail.com> -- http://anamnese.fr.st
M:C|
L:1/4
Q:1/4=80
K:G
B c | d e | d c | d d | G A | B c | B A | G2  | B c | d e | d c |!
d d | G A | B c | B A | G2  | G A | B c | d c | B2  | A B | c B |
(3B/A/G/ A/-B/  | B2  | %/.../
W:L'autrier par la matinée
W:Entre un bois et un vergier
W:Une pastore ai trouvée
W:Chantant pour soi envoisier,
W:Et disoit un son premier :
W:"Ci me tient li maus d'amor."

